!!!OTL: EIN LEBEN WIE IM PARADIES
!!!ARE: Europa, Mitteleuropa, Deutschland
!!!SCT: F0734
!!!YEM: Copyright 1995, estate of Helmut Schaffrath.
**kern
*ICvox
*Ivox
*M6/8
*k[f#c#]
*D:
{8d
=1
4f#
8f#
4a
8a
=2
8.dd
16a
8b
4a}
{8f#
=3
4g
8a
4f#
8d
=4
4.e
4r}
{8a
=5
4g#
8e
4a
8cc#
=6
8.b
16cc#
8dd
4cc#}
{8a
=7
8.dd
16cc#
8b
4a
8g#
=8
4.a
4r}
{8a
=9
4g
8a
4cc#
8a
=10
4dd
8a
4f#}
{8a
=11
4g
8a
8.f#
16g
8a
=12
4e
4.r}
{8a
=13
4f#
8a
4dd
8ee
=14
8.ff#
16dd
8b
4a}
{8dd
=15
4ee
8ee
8.cc#
16b
8cc#
=16
4dd
8cc#
8ccn
8b}
{8g
=17
4a
8a
8.a
16g
8e
=18
4.d
4r}
==
!!!AGN: Geselligkeits -, Trink - Lied
!!!ONB: ESAC (Essen Associative Code) Database: FINK
!!!AMT: compound duple
!!!AIN: vox
!!!EED: Helmut Schaffrath
!!!EEV: 1.0
*-
